**kern	**kern	**dynam
*part1	*part1	*part1
*staff2	*staff1	*
*I"Piano	*	*
*clefF4	*clefG2	*
*k[b-e-a-d-]	*k[b-e-a-d-]	*
=1	=1	=1
*^	*^	*
8r	2.AAn	4r	4ryy	>
4An	.	.	.	.
.	.	(4dd- 4ff	2f	.
4A	.	.	.	.
.	.	4cc) 4ee-	.	.
8A	.	.	.	.
*	*	*v	*v	*
=	=	=	=
8r	2.BB-	4r	.
4B-	.	.	.
.	.	([4f 4dd-	]
4B-	.	.	.
.	.	4d-) 4f] 4b-	.
8B-	.	.	.
=	=	=	=
*	*	*^	*
8r	2.EEn	4re	2.d-	.
4En	.	.	.	.
.	.	(4a- 4cc	.	.
4E	.	.	.	.
.	.	4g) 4b-	.	.
8E	.	.	.	.
*	*	*v	*v	*
=	=	=	=
8r	2.FF	(4c 4a-	.
4F	.	.	.
.	.	4B- 4g	.
4F	.	.	.
.	.	4A-) 4f	.
8F	.	.	.
=	=	=	=
8r	2.GG	4r	p
4G	.	.	.
.	.	(4e- 4b-	.
4G	.	.	.
.	.	4B-) 4e-	.
8G	.	.	.
=	=	=	=
8r	2.BBB-	4r	.
4BB-	.	.	.
.	.	(4e- 4a- 4cc	.
4BB-	.	.	.
.	.	4F) 4A- 4dn	.
8BB-	.	.	.
*v	*v	*	*
=	=	=
4CC 4C	8r	.
.	4c	.
4CC-X 4C-X	.	.
.	4c-X	.
4BBB- 4BB-	.	.
.	8B-	.
=	=	=
*	*^	*
2.AAAn 2.AAn	(8e-L	4e-	.
.	8f#XJ 8ee-	.	.
.	8dnL	4d	.
.	8f#J 8ddn	.	.
.	8e-L)	4e-	.
.	8f#J 8cc	.	.
*	*v	*v	*
=	=	=
*-	*-	*-
!!!system-decoration: {(s1,s2)}
